src/mimes/22/application-x-kvtml.svg

<svg width="22" height="22" xmlns="http://www.w3.org/2000/svg">
 <g fill="#4c566a">
  <path d="M3 3v16h16V3H3zm1 1h14v14H4V4z"/>
  <path d="m6 6h10v2h-10zm0 4h4v1h-4zm6 0h4v1h-4zm-6 3h4v1h-4zm6 0h4v1h-4zm-6 3h4v1h-4zm6 0h4v1h-4z"/>
 </g>
</svg>

<svg width="22" xmlns="http://www.w3.org/2000/svg" height="22"><g fill="#4c566a"><path d="M3 3v16h16V3H3zm1 1h14v14H4V4z"/><path d="M6 6h10v2H6zM6 10h4v1H6zM12 10h4v1h-4zM6 13h4v1H6zM12 13h4v1h-4zM6 16h4v1H6zM12 16h4v1h-4z"/></g></svg>
